X:82
T:Harvest Time 
R:
C:Bruce Osborne  --  Oct. 1992
Z:abc by bosborne@kos.net
M:3/4
L:1/8
K:G
DC|B,D G,B, DG|BA G2 Bc|dB GB DB|A4 AB|\
cA FA DF|Ad f2 AB|cA FA DF|G4 DC|\
B,D G,B, DG|BA G2 Bc|dB GB DB|A4 AB|\
cA FA DF|Ad f2 AB|cA FA DF|G4||\
Bc|dB GB DG|Bc d2 Bc|dB GB DB|A4 AB|\
cA FA DF|Ad f2 AB|cA FA DF|G4 Bc|\
dB GB DG|Bc d2 Bc|dB GB DB|A4 AB|\
cA FA DF|Ad f2 AB|cA FA DF|G4||
